X:1
T:Wilt Thou Be Made Whole?
T:Wilt Thou Be Made Whole?
T:William James Kirkpatrick
T:William James Kirkpatrick, 1912
T:Public Domain Courtesy of the Cyber Hymnal™
T:Public Domain Courtesy of the Cyber Hymnal™
C:William James Kirkpatrick
Z:Public Domain
Z:Courtesy of the Cyber Hymnal™
%%score ( 1 2 ) ( 3 4 )
L:1/8
Q:1/4=110
M:3/4
K:Eb
V:1 treble 
V:2 treble 
V:3 bass 
V:4 bass 
V:1
 E>[EF] | [EG]2 [EG]2 [B,F]2 | [B,E]2 [B,E]2 ([DF]>[DF]) | [DF]2 E2 [EG]2 | [DF]4 [DF]>[EG] | %5
w: 1.~Hear the|foot- steps of|Je- sus, He~is *|now pass- ing|by, Bear- ing|
w: 2.~’Tis the|voice of that|Sav- ior, Whose *|mer- ci- ful|call Free- ly|
w: 3.~Are you|halt- ing and|strugg- ling, Over- *|powr’d by your|sin, While the|
w: 4.~Bless- èd|Sav- ior, as-|sist us To *|rest on Thy|Word; Let the|
 [FA]2 [FA]2 [Ac]2 | [GB]2 [GB]2 ([EG]>[FA]) | [GB]2 [EG]2 E2 | [DF]4 [DB]>[FA] | %9
w: balm for the|wound- ed, Healing *|all who ap-|ply; As He|
w: of- fers sal-|va- tion To *|one and to|all; He is|
w: wa- ters are|trou- bled Can~you *|not en- ter|in? Lo, the|
w: soul heal- ing|pow- er On~us *|now be out-|poured; Wash a-|
 [EG]2 [EG]2 [B,F]2 | [B,E]2 [B,E]2 [EB]2 | [Ec]2 [EA]2 [Ec]2 | [EB]4 ([GB]>[GB]) | %13
w: spake to the|suff- ’rer Who|lay at the|pool, He~is *|
w: now beck- ’ning|to Him Each|sin- taint- ed|soul, And *|
w: Sav- ior stands|wait- ing To|strength- en your|soul; He~is *|
w: way ev- ery|sin- spot, Take|per- fect con-|trol, Say~to *|
 [Ge]2 [EG]2 [Ac]2 | [GB]2 E2 [FA]2 | [EG]2 [EG]2 [DF]2 | E4 ||"^Refrain" [EG]2 | %18
w: say- ing this|mo- ment, “Wilt|thou be made|whole?”||
w: lov- ing- ly|ask- ing, “Wilt|thou be made|whole?”|Wilt|
w: ear- nest- ly|plead- ing, “Wilt|thou be made|whole?”||
w: each trust- ing|spir- it, “Thy|faith makes thee|whole.”||
 [DF]2 [DF]2 [DF]2 | [EG]4 ([DF][EG]) | [FA]2 [FA]2 [Ac]2 | [GB]4 [GB]2 | [Ge]2 [Bd]2 [Ac]2 | %23
w: |||||
w: thou be made|whole? Wilt *|thou be made|whole? O|come, wear- y|
w: |||||
w: |||||
 [GB]2 [EG]2 [GB]2 | [Ac]2 [GB]2 [EG]2 | [DF]4 [FB]>[FA] | [EG]2 [EG]2 [B,F]2 | %27
w: ||||
w: suff- erer, O|come, sin- sick|soul; See the|life- stream is|
w: ||||
w: ||||
 [B,E]2 [B,E]2 [GB]>[GB] | [Ac]2 [EA]2 [Ac]2 | [GB]4 [GB]2 | [Ge]2 [EG]2 [Ac]2 | [GB]2 E2 [FA]2 | %32
w: |||||
w: flow- ing, See the|cleans- ing waves|roll, Step|in- to the|cur- rent and|
w: |||||
w: |||||
 [EG]2 [EG]2 [DF]2 | [B,E]4 |] %34
w: ||
w: thou shalt be|whole.|
w: ||
w: ||
V:2
 E3/2 x/ | x6 | x6 | x2 E2 x2 | x6 | x6 | x6 | x4 E2 | x6 | x6 | x6 | x6 | x6 | x6 | x2 E2 x2 | %15
 x6 | E4 || x2 | x6 | x6 | x6 | x6 | x6 | x6 | x6 | x6 | x6 | x6 | x6 | x6 | x6 | x2 E2 x2 | x6 | %33
 x4 |] %34
V:3
 [E,G,]>[E,A,] | [E,B,]2 [E,B,]2 [E,A,]2 | [E,G,]2 [E,G,]2 ([B,,B,]>[B,,B,]) | %3
 [E,B,]2 [G,B,]2 [E,B,]2 | [B,,B,]4 [B,,B,]>[B,,B,] | [B,,B,]2 [B,,B,]2 [B,,D]2 | %6
 [E,E]2 [E,E]2 ([E,B,]>[E,B,]) | [E,E]2 [E,B,]2 [E,G,]2 | [B,,B,]4 [B,,B,]>[B,,B,] | %9
 [E,B,]2 [E,B,]2 [E,A,]2 | [E,G,]2 [E,G,]2 [E,G,]2 | [A,,A,]2 [A,,C]2 [A,,A,]2 | %12
 [E,G,]4 ([E,B,]>[E,B,]) | [E,B,]2 [E,B,]2 [E,E]2 | [E,E]2 [G,B,]2 [A,C]2 | B,2 B,2 [B,,A,]2 | %16
 [E,G,]4 || [E,B,]2 | [B,,B,]2 [B,,B,]2 [B,,B,]2 | [E,B,]4 [B,,B,]2 | [B,,B,]2 [B,,B,]2 [B,,D]2 | %21
 [E,E]4 [E,B,]2 | [E,B,]2 [E,B,]2 [E,E]2 | [E,E]2 [E,B,]2 [E,E]2 | [A,E]2 [E,E]2 [E,B,]2 | %25
 [B,,B,]4 [D,B,]>[D,B,] | [E,B,]2 [E,B,]2 [E,A,]2 | [E,G,]2 [E,G,]2 [E,E]>[E,E] | %28
 [A,E]2 [A,C]2 [A,E]2 | [E,E]4 [E,B,]2 | [E,B,]2 [E,B,]2 [E,E]2 | [E,B,]2 [G,B,]2 [A,C]2 | %32
 B,2 B,2 [B,,A,]2 | [E,G,]4 |] %34
V:4
 x2 | x6 | x6 | x6 | x6 | x6 | x6 | x6 | x6 | x6 | x6 | x6 | x6 | x6 | x6 | B,2 B,2 x2 | x4 || x2 | %18
 x6 | x6 | x6 | x6 | x6 | x6 | x6 | x6 | x6 | x6 | x6 | x6 | x6 | x6 | B,2 B,2 x2 | x4 |] %34

